.forestry/content/images/users.svg

<svg clip-rule="evenodd" fill-rule="evenodd" stroke-linecap="round" stroke-linejoin="round" viewBox="0 0 24 24" xmlns="http://www.w3.org/2000/svg"><g fill="none" stroke="#9b9b9b" stroke-width="2" transform="translate(1 3)"><path d="m16 18v-2c0-2.209-1.791-4-4-4h-8c-2.209 0-4 1.791-4 4v2"/><circle cx="8" cy="4" r="4"/><path d="m22 18v-2c-.001-1.823-1.235-3.414-3-3.87"/><path d="m15 .13c1.77.453 3.008 2.048 3.008 3.875s-1.238 3.422-3.008 3.875"/></g></svg>

<?xml version="1.0" encoding="UTF-8" standalone="no"?>
<!DOCTYPE svg PUBLIC "-//W3C//DTD SVG 1.1//EN" "http://www.w3.org/Graphics/SVG/1.1/DTD/svg11.dtd">
<svg width="100%" height="100%" viewBox="0 0 24 24" version="1.1" xmlns="http://www.w3.org/2000/svg" xmlns:xlink="http://www.w3.org/1999/xlink" xml:space="preserve" xmlns:serif="http://www.serif.com/" style="fill-rule:evenodd;clip-rule:evenodd;stroke-linecap:round;stroke-linejoin:round;">
    <g transform="matrix(1,0,0,1,1,3)">
        <g id="_--Prototype" serif:id="•-Prototype">
            <g id="Create-account">
                <g id="users">
                    <path id="Shape" d="M16,18L16,16C16,13.791 14.209,12 12,12L4,12C1.791,12 0,13.791 0,16L0,18" style="fill:none;stroke:rgb(155,155,155);stroke-width:2px;"/>
                    <circle id="Oval" cx="8" cy="4" r="4" style="fill:none;stroke:rgb(155,155,155);stroke-width:2px;"/>
                    <path id="Shape1" serif:id="Shape" d="M22,18L22,16C21.999,14.177 20.765,12.586 19,12.13" style="fill:none;stroke:rgb(155,155,155);stroke-width:2px;"/>
                    <path id="Shape2" serif:id="Shape" d="M15,0.13C16.77,0.583 18.008,2.178 18.008,4.005C18.008,5.832 16.77,7.427 15,7.88" style="fill:none;stroke:rgb(155,155,155);stroke-width:2px;"/>
                </g>
            </g>
        </g>
    </g>
</svg>
